!!!!SEGMENT: pl-wtm--iii-41-637-2--001-001_joteyko-tadeusz--sonatine-g-dur-op-18-no-2-i-allegro-risoluto.krn
!!!cenid: 19xx:106
!!!COM: Joteyko, Tadeusz
!!!COM-rismID: pe50046072
!!!CDT: 1872-1932
!!!CNT: Polish
!!!OPR: Sonatine G-dur Op. 18 No. 2
!!!OTL: I. Allegro risoluto
!!!OMV: 001
!!!PDT:
!!!AGN: Secular; Sonata
!!!YEC: Copyright 2022 Narodowy Instytut Fryderyka Chopina (https://polishscores.org)
!!!YEM: License CC-BY-4.0 (https://creativecommons.org/licenses/by/4.0)
!!!SMS-siglum: PL-Wtm
!!!SMS-shelfmark: III.41.637-2
!!!SMS-variant:
!!!SMS-altvar:
!!!SMS-shelfwork: 001-001 M
!!!NIFC-rismSourceID: 1001141218
!!!NIFC-rismChildID: 1001141218
!!!NIFC-islandoraID: pl-wtm:20258
!!!URL-pdf-islandora: https://repozytorium.nifc.pl/islandora/object/pl-wtm%3A20258/datastream/PDF/view
!!!URL-scan: https://polish.musicsources.pl/pl/lokalizacje/galeria/druki-muzyczne/17522/2 @EN{Scan on Polish Music Sources Website} @PL{Skany w portalu Dziedzictwo Muzyki Polskiej w otwartym dostępie}
!!!IIIF:
!!!ONB-nifc: UWAGA: części Sonatiny: I. Allegro risoluto, II. Dumka, III. Alla Polacca
!!!AIN: 1 forte
!!!key: G
**kern	**fing	**kern	**fing	**dynam
*part1	*	*part1	*	*part1
*staff2	*	*staff1	*	*
*I"PIANO.	*	*I"PIANO.	*	*
*I'pf	*	*I'pf	*	*
*ICklav	*	*ICklav	*	*
*Iforte	*	*Iforte	*	*
*clefF4	*	*clefG2	*	*
*k[f#]	*	*k[f#]	*	*
*G:	*	*G:	*	*
*M4/4	*	*M4/4	*	*
=1	=1	=1	=1	=1
*	*below	*	*	*
(4.G^\	3	(4.g^/	3	f
8B\	1	8b\	5	.
8A\L	2	8a/L	4	.
8F#\J	4	8f#/J	2	.
4D\)	5	4d/)	1	.
=2	=2	=2	=2	=2
4C/	2	4c/ 4e	2 4	p
4C/	.	4c/ 4e	.	.
[4GG/	.	[4B/ [4d	1 3	.
8GG/]	.	8B/] 8d]	.	.
8r	.	8r	.	.
=3	=3	=3	=3	=3
*	*	*^	*	*
(4C/	2	(4e/	8e\L	3	.
.	.	.	8c\	.	<
4GG/	5	4d#X/	8d#\	2	.
.	.	.	8B\J	.	.
4C/	2	4e/	8e\L	3	.
.	.	.	8c\	.	.
4D\	1	4f#/	8f#\	4	.
.	.	.	8c\J	.	[
=4	=4	=4	=4	=4	=4
4E\	3	8a/L	2c\	5	.
.	.	8g/	.	.	>
8A\L	1	8f#/	.	.	.
8G\J	.	8e/J	.	.	.
4F#\)	.	4d/)	4c\	.	.
4r	.	4r	4ryy	.	]
*	*	*v	*v	*	*
!!LO:LB:g=original
=5	=5	=5	=5	=5
(4.A^\	3	(4.a^/	3	f
8c\	.	8cc\	5	.
8B\L	2	8b\L	4	.
8G\J	4	8g\J	2	.
4E\)	5	4e/)	1	.
=6	=6	=6	=6	=6
*	*	*^	*	*
(4G\	3	4ee/	8g\L	5	p
.	.	.	8b\	2	.
4A\)	2	4ee/	8cc\	3 5	.
.	.	.	8f#\J	.	.
(8B\L	2	[4f#\ [4dd#X	2ryy	4	.
8c\	1	.	.	.	.
8B\	2	8f#\] 8dd#]	.	.	.
8A#X\J	3	8r	.	.	.
=7	=7	=7	=7	=7	=7
4An\	1	4ddn/	8fn\L	5	.
.	.	.	8a\	2	.
4G#X\)	2	4dd/	8b\	.	.
.	.	.	8e\J	.	.
(8A\L	3	[4e\ [4cc#X	2ryy	4	.
8B\	2	.	.	.	.
8A\	1	8e\] 8cc#]	.	.	.
8G#\J	2	8r	.	.	.
=8	=8	=8	=8	=8	=8
4Gn\	3	4ccn/	8e-X\L	5	.
.	.	.	8g\	.	.
4F#\)	4	4cc/	8a\	.	.
.	.	.	8d\J	.	.
(8G\L	2	[4d/ [4b	2ryy	4	.
8A\	.	.	.	.	.
8G\	.	8d/] 8b]	.	.	.
8F#\J	.	8r	.	.	.
*	*	*v	*v	*	*
=9	=9	=9	=9	=9
4E\)	4	(8cc\L	3	<
.	.	8b\	.	.
(4A\	2	8cc\	.	.
.	.	8ee\J	.	.
4F#\	3	8dd\L	.	.
.	.	8cc\J	.	[
4c\)	1	4a/)	.	.
!!LO:LB:g=original
=10	=10	=10	=10	=10
(4D\	5	(8b\L	3	.
.	.	8a\	.	.
4G\	.	8b\	.	.
.	.	8dd\J	.	.
4E\	4	8cc\L	.	.
.	.	8b\J	.	.
4B\	.	4g/)	.	.
=11	=11	=11	=11	=11
4A\	2	(8f#/L	3	.
.	.	8a/	.	.
4B\)	1	8g/	.	.
.	.	8f#/J	.	.
(8c#X\L	2	8e/)	.	.
8B\	3	8r	.	.
8A\	1	8c#X/ 8f#	2 5	.
8G\J	2	8r	.	.
=12	=12	=12	=12	=12
8F#\L	3	4d/	3	>
8E\	4	.	.	.
8F#\	.	4r	.	.
8G\J	.	.	.	.
8F#\L	3	2r	.	.
8E\J	4	.	.	]
4D\)	5	.	.	.
=13	=13	=13	=13	=13
(8C#X/L	3	(4.aa^\	5	p
8BB/	.	.	.	.
8C#/	.	.	.	.
8AA/J	.	8ee\	2	.
8D\L	2	8ff#\L	.	.
8E\J	1	16gg\L	.	.
.	.	16ff#\JJ	.	.
4F#\)	2	8ee\L	.	.
.	.	8dd\J	1	.
=14	=14	=14	=14	=14
(8G\L	1	8ee\	4	.
8F#\	.	4a^/	1	.
8E\	.	.	.	.
8G\J	.	8cc#X\	2	.
8F#\L	2	2dd\)	3	.
8E\	.	.	.	.
8D\	.	.	.	.
8F#\J	2	.	.	.
!!LO:LB:g=original
=15	=15	=15	=15	=15
8E/L	1	(4.aa^\	5	.
8AA/	5	.	.	.
8BB/	.	.	.	.
8C#X/J	.	8ee\	2	.
8D\L	1	16ff#\LL	3	.
.	.	16gg\	.	.
8F#\	4	16ff#\	.	.
.	.	16ee\JJ	.	.
8A\	1	16ff#\LL	.	.
.	.	16ee\	.	.
8AA\J)	5	16ff#\	.	.
.	.	16dd\JJ	.	.
=16	=16	=16	=16	=16
(8C#X\L	3	8ee\	4	.
8G\	.	4a^/	.	.
8F#\	.	.	.	.
8E\J	.	8cc#X\	.	.
8D\L	4	4.dd\	3	.
8F#\J	2	.	.	.
4A\)	1	.	.	.
.	.	8ff#\)	5	.
=17	=17	=17	=17	=17
(8G\L	1	(8ee\	4	.
8F#\	.	4a^/	.	.
8E\	.	.	.	.
8G\J	.	8cc#X\	2	.
8F#\L	2	8dd\L	3	.
8D\J	3	16dd\L	.	.
.	.	16ee\JJ	.	.
4AA/)	5	8ff#\L	.	.
.	.	8dd\J	.	.
=18	=18	=18	=18	=18
(8C#X\L	3	8ee\	4	.
8G\	1	4a^/	.	.
8F#\	.	.	.	.
8E\J	.	8cc#X\	2	.
16D\LL	5	4dd\)	3	<
16E\	.	.	.	.
16F#\	.	.	.	.
16G\JJ	.	.	.	.
16A\LL	1	4r	.	.
16B\	3	.	.	.
16c#X\	.	.	.	.
16d\JJ)	.	.	.	[
*clefG2	*	*	*	*
!!LO:LB:g=original
=19	=19	=19	=19	=19
8c#X^/L	3	16aa\LL	3	f
.	.	16gg#X\	.	.
8e^/	2	16aa\	.	.
.	.	16gg#\JJ	.	.
8a^/J	1	16ggn\LL	1	.
.	.	16ff#\	2	.
8r	.	16gg\	3	.
.	.	16ff#\JJ	.	.
8G^/L	5	16ee\LL	1	.
.	.	16dd\	2	.
8B^/	3	16ee\	3	.
.	.	16dd\JJ	1	.
8e^/J	1	16cc#X\LL	3	.
.	.	16b\	1	.
8r	.	16cc#\	3	.
.	.	16b\JJ	1	.
=20	=20	=20	=20	=20
16a/LL	1	8cc#X^\L	2	.
16g#X/	.	.	.	.
16a/	.	8ee^\	3	.
16g#/JJ	2	.	.	.
16gn/LL	1	8aa^\J	5	.
16f#/	2	.	.	.
16g/	.	8r	.	.
16f#/JJ	.	.	.	.
16e/LL	1	8g^\L	1	.
16d/	2	.	.	.
16e/	.	8cc#^\	3	.
16d/JJ	.	.	.	.
16c#X/LL	3	8ee^\J	5	.
16B/	.	.	.	.
16c#/	.	8r	.	.
16B/JJ	.	.	.	.
=21	=21	=21	=21	=21
4A/	5	(8g/	.	.
.	.	4gg^\	.	.
4c#X/	3	.	.	.
.	.	8ee\)	.	.
4d/	2	(8f#/	.	>
.	.	4ff#^\	.	.
4G#X/	5	.	.	.
.	.	8dd\	.	.
=22	=22	=22	=22	=22
4A/	4	8cc#X\L)	.	.
.	.	(16cc#\L	3	.
.	.	16dd\JJ	.	.
8c#X/L	2	8ee\L	.	]
8e/J	1	8cc#\J	.	.
*clefF4	*	*	*	*
8d\L	2	4f#\) 4dd	4	p
8c#X\	3	.	.	.
8B\	1	4r	.	.
8A\J	3	.	.	.
!!LO:PB:g=original
=23	=23	=23	=23	=23
8G\L	1	(>8e/	4	.
8F#\	2	4A^/	.	.
8E\	3	.	.	.
8AA\J	5	8c#X/	2	.
8D/L	1	4.d/	3	.
8C#X/	.	.	.	.
8BB/	.	.	.	.
8AA/J	1	8f#/)	5	.
=24	=24	=24	=24	=24
8GG/L	2	(>8e/	.	.
8FF#/	.	4A^/	.	.
8EE/	4	.	.	.
8AA/J	1	8c#X/	.	.
4DD/	5	4F#/) 4d	.	.
4r	.	4r	.	.
=25	=25	=25	=25	=25
(4A\	.	4d/ 4f#	.	f
4F#\	.	4d/ 4f# 4a	.	.
4D\)	.	4f#/ 4a 4dd	.	.
4r	.	4r	.	.
=26	=26	=26	=26	=26
(4B\	.	4d/ 4f# 4b	.	f
4F#\	.	4f#/ 4b 4dd	.	.
4E\)	.	4g#X\ 4dd 4ff#	.	.
4r	.	4r	.	.
!!LO:LB:g=original
=27	=27	=27	=27	=27
1r	.	8ee\L	4	p
.	.	8ffn\	5	.
.	.	8ee\	.	.
.	.	8dd\J	.	.
.	.	8cc/L	.	.
.	.	8b/	.	.
.	.	8a/	3	.
.	.	8g/J	2	.
=28	=28	=28	=28	=28
!	!	!	!	!LO:DY:b=2
(4.A^\	3	8f#/L	1	mf
!LO:TX:i:b:t=marcato	!	!	!	!
.	.	8cc/	4	.
.	.	8b/	.	.
8c\	2	8a/J	.	.
8B\L	1	8g#X\L	1	.
8G#X\J	3	8dd\	4	.
4E\)	5	8cc\	.	.
.	.	8b\J	.	.
=29	=29	=29	=29	=29
4Fn^\	.	8a\L	1	.
.	.	8ee\	4	.
4F^\	.	8dd\	.	.
.	.	8cc#X\J	.	.
4.E^\	.	8dd/L	5	.
.	.	8e/	.	.
.	.	8f#/	.	.
8d\	1	8g#X/J	.	.
=30	=30	=30	=30	=30
!	!	!LO:TX:i:b:t=legato	!	!
8c\L	2	(4.a^/	1	p
8B\	3	.	.	.
8A\	1	.	.	.
8E\J	3	8cc\	4	.
8Fn\L	2	8b/L	3	.
8E\	3	8g#X/J	2	.
8D\	4	4e/)	1	.
8C\J	1	.	.	.
=31	=31	=31	=31	=31
8BB/L	2	4d^/ 4fn	.	.
8AA/	.	.	.	.
8GG#X/	4	4d^/ 4f	.	.
8AA/J	.	.	.	.
8BB/L	2	2e^/	.	.
8C/	1	.	.	.
8D/	4	.	.	.
8E/J	3	.	.	.
!!LO:LB:g=original
=32	=32	=32	=32	=32
8Fn\L	2	4d#X^>/	.	.
8c\	1	.	.	.
8B\	2	4d#^>/	.	.
8A\J	1	.	.	.
4G#X\	3	(8e/L	1	.
.	.	8g#X/	3	.
4E\	5	8a/	1	.
.	.	8b/J	2	.
=33	=33	=33	=33	=33
4A\	3	8cc\L	3	.
.	.	8b\	.	.
4c\	2	8a\	1	.
.	.	8cc\J	4	.
4.d\	1	8b/L	3	.
.	.	8g#X/J)	2	.
.	.	4e/	1	.
8c\	2	.	.	.
=34	=34	=34	=34	=34
8B\L	3	4fn^>/ 4a	.	.
8c\	.	.	.	.
8d\	.	4f^>/ 4a	.	.
8B\J	4	.	.	.
8e\L	1	2g#X^>/	.	.
8d\	.	.	.	.
8c\	.	.	.	.
8B\J	1	.	.	.
=35	=35	=35	=35	=35
8B-X\L	2	4e^</ 4gn 4dd^>	.	<
8A\	.	.	.	.
8B-\	.	4e^/ 4g 4dd	.	.
8G\J	4	.	.	.
8A\L	.	2e^/ 2g 2cc#X	.	.
8B-\	.	.	.	.
8A\	1	.	.	[
8G\J	2	.	.	.
=36	=36	=36	=36	=36
*	*	*^	*	*
8Fn\L	3	(4.dd^/	2a\	3	mf
8E\	.	.	.	.	.
8F\	.	.	.	.	.
8D\J	5	8ffn/	.	.	.
8A\L	1	8ee/L	2ryy	.	.
8G\	.	8cc#X/J	.	.	.
8F\	.	4a/)	.	.	.
8G\J	.	.	.	.	.
!!LO:LB:g=original
=37	=37	=37	=37	=37	=37
8A\L	1	(4.ffn/	2dd\	3	.
8G\	.	.	.	.	.
8A\	.	.	.	.	.
8Fn\J	3	8aa/	.	.	.
8E\L	4	8gg/L	4ryy	4	.
8F\	.	8ee/J	.	3	.
8G\	.	4cc#X/)	4cc#\	1	.
8A\J	.	.	.	.	.
*	*	*v	*v	*	*
=38	=38	=38	=38	=38
8Bn\L	2	4dd^\ 4ffn	.	.
8A\	3	.	.	.
8B\	.	4dd^\ 4ff	.	.
8G\J	4	.	.	.
8c\L	1	2dd^\ 2ee	.	.
8B\	2	.	.	.
8A\	3	.	.	.
8G\J	1	.	.	.
=39	=39	=39	=39	=39
8F#X\L	2	4cc^\ 4ee	.	.
8E\	.	.	.	.
8F#\	.	4cc^\ 4ee	.	.
8D\J	4	.	.	.
8G\L	1	2cc^\ 2dd	.	.
8F#\	.	.	.	.
8E\	.	.	.	.
8F#\J	.	.	.	.
=40	=40	=40	=40	=40
*	*	*^	*	*
4G\	1	4dd/	8b\L	3 5	.
.	.	.	8a\	.	.
4B\	4	4ee/	8g\	.	.
.	.	.	8b\J	.	.
4c\	.	4ee/	8a\L	2 5	.
.	.	.	8g\	.	.
4d\	.	4dd/	8f#\	2 5	.
.	.	.	8a\J	.	.
*	*	*v	*v	*	*
=41	=41	=41	=41	=41
8e\L	1	(4g'\ 4cc	.	.
8d\	.	.	.	.
8c\	.	4a'\ 4gg	.	.
8B\J	.	.	.	.
8c\L	3	4a'\ 4gg	.	.
8d\	1	.	.	.
8d#X\	2	4a'\ 4ff#	.	.
8B\J	4	.	.	.
!!LO:LB:g=original
=42	=42	=42	=42	=42
8e\L	1	4g'\) 4gg	.	.
8dn\	.	.	.	.
8c\	.	4r	.	.
8e\J	.	.	.	.
4.d\	2	(8ff#\L	4	.
.	.	8dd\J	.	.
.	.	4a/	.	.
8c\	1	.	.	.
=43	=43	=43	=43	=43
8B\L	2	4dd\)	3	.
8A\	.	.	.	>
8G\	.	4r	.	.
8B\J	.	.	.	.
4.A\	3	(8cc\L	4	.
.	.	8a\J	.	.
.	.	4e/)	.	]
8G\	4	.	.	.
=44	=44	=44	=44	=44
8F#\L	5	4d#X/ 4a	.	p
8c\	.	.	.	.
8B\	.	4d#/ 4a	.	.
8A\J	.	.	.	.
8B\L	2	2e/ 2g	.	.
8E\	5	.	.	.
8F#\	.	.	.	.
8G\J	.	.	.	.
=45	=45	=45	=45	=45
8A\L	2	4f#\ 4cc	.	.
8e\	1	.	.	.
8d\	.	4f#\ 4cc	.	.
8c\J	3	.	.	.
8d\L	2	(8g/L 8b	1 4	.
8c\	3	8f#/	2	.
8B\	1	8g/	1	.
8A\J	2	8a/J	3	.
!!LO:LB:g=original
=46	=46	=46	=46	=46
8G\L	3	8b\L	4	.
8F#\	4	8a#X\	.	.
8G\	.	8b\	.	.
8A\J	2	8cc\J	5	.
8G\L	1	8b\L	.	.
8E\	2	8g\J	.	.
8C\	3	4e/)	.	.
8BB\J	4	.	.	.
=47	=47	=47	=47	=47
4AA/	5	(>8f#/L	2	.
.	.	8e#X/	.	.
4A\	.	8f#/	.	.
.	.	8a/J	.	.
4BB/	.	8g/L	.	.
.	.	8e#/J	.	.
(8A\L	1	4c/)	.	.
8G\J	2	.	.	.
=48	=48	=48	=48	=48
8F#\L	3	(8d#X/L	2	<
8E\	.	8e/	1	.
8D#X\	.	8f#/	2	.
8C\J	3	8a/J	4	.
8BB/L	1	8g/L	1	.
8AA/	.	8a/	.	.
8GG/	.	8b/	.	[
8FF#/J	4	8ee/J	5	.
=49	=49	=49	=49	=49
4BB/)	1	8dd#X\L	3	.
.	.	8b\	1	.
(4A\	1	8dd#\	2	.
.	.	8ff#\J	3	.
4G\	.	8ee\L	1	.
.	.	8gg\J	2	.
4F#\	.	4bb\)	4	.
!!LO:PB:g=original
=50	=50	=50	=50	=50
!	!	!LO:TX:i:b:t=poco rit.	!	!
4E\	1	(8cc\L	.	.
.	.	8ee\J	.	.
4D#X\	.	4aa\)	.	.
4Dn\	.	(8b\L	.	.
.	.	8dd\J	.	.
4C#X/	4	4gg\)	.	.
=51	=51	=51	=51	=51
4.D\)	3	(8a\L	.	.
.	.	8cc\J	.	.
.	.	4ff#\)	.	>
(8e\	1	.	.	.
8d\L	.	2r	.	.
8c\	.	.	.	.
8B\	1	.	.	.
8A\J)	2	.	.	]
=52	=52	=52	=52	=52
!	!	!LO:TX:i:b:t=a tempo	!	!
(4.G^\	3	(4.g^/	.	pp
8B\	1	8b/	.	.
8A\L	2	8a/L	.	.
8F#\J	3	8f#/J	.	.
4D\)	5	4d/)	.	.
=53	=53	=53	=53	=53
4C/	2	4c/ 4e	.	.
4C/	.	4c/ 4e	.	.
[4GG/	.	[4B/ [4d	.	.
8GG/]	.	8B/] 8d]	.	.
8r	.	8r	.	.
=54	=54	=54	=54	=54
(4.C^/	5	(4.c^/ 4.e	.	.
8G\	1	8g/	.	.
8F#\L	2	8f#/L	.	.
8D\J	4	8d/J	.	.
4BB/)	5	4B/)	.	.
!!LO:LB:g=original
=55	=55	=55	=55	=55
4AA/	3	4c/ 4e	2 4	.
4AA/	4	4c/ 4e	.	.
[4E\	1	[4B/ [4d	.	.
8E\]	.	8B/] 8d]	.	.
8r	.	8r	.	.
=56	=56	=56	=56	=56
1r	.	(8c/L	1	<
.	.	8d/	.	.
.	.	8e/	.	.
.	.	8f#/J	.	.
.	.	8g/L	1	.
.	.	8a/	.	.
.	.	8b/	.	.
.	.	8cc/J	4	[
=57	=57	=57	=57	=57
(8C\L	5	8dd/L	5	.
8D\	.	8f#/	2	.
8E\	.	8g/	1	.
8F#\J	.	8a/J	.	.
8G\L	1	8b\L	3	.
8A\	4	8cc\	1	.
8B\	.	8dd\	2	.
8c\J	.	8ee\J)	3	.
=58	=58	=58	=58	=58
4d\	1	(8cc\L 8ff#	1 4	mf
.	.	8ee\	.	.
4c\	2	8ff#\	.	.
.	.	8aa\J	.	.
4B\	3	8gg\L	4	.
.	.	8ff#\J	.	.
4f#\)	1	4dd\)	.	.
=59	=59	=59	=59	=59
(4G\	5	(8ee\L	3	.
.	.	8dd\	.	.
4c\	2	8ee\	.	.
.	.	8gg\J	.	.
4A\	4	8ff#\L	.	.
.	.	8ee\J	.	.
4e\)	1	4cc\)	.	.
!!LO:LB:g=original
=60	=60	=60	=60	=60
!LO:TX:i:b:t=legato	!	!	!	!
4d\	2	(8b\L	3	.
.	.	8dd\	.	.
4e\	1	8cc\	.	.
.	.	8b\J	.	.
8f#\L	2	8a/)	.	.
8e\	3	8r	.	.
8d\	1	8f#/ 8b	2 5	.
8c\J	2	8r	.	.
=61	=61	=61	=61	=61
8B\L	3	4g/	3	>
8A\	4	.	.	.
8B\	3	4r	.	.
8G\J	5	.	.	.
8B\L	.	2r	.	.
8d\	.	.	.	.
8c\	.	.	.	]
8B\J	3	.	.	.
=62	=62	=62	=62	=62
8A\L	1	(4.ddd^\	5	p
8G\	.	.	.	.
8A\	.	.	.	.
8F#\J	3	8aa\	2	.
8G\	2	8bb\L	.	.
4A\	1	16ccc\L	.	.
.	.	16bb\JJ	.	.
.	.	8aa\L	.	.
8B\	3	8gg\J	1	.
=63	=63	=63	=63	=63
8c\L	2	8aa\	4	.
16d\L	.	4dd^\	1	.
16c\JJ	.	.	.	.
8B\L	.	.	.	.
8A\J	.	8ff#\	2	.
8B\L	3	2gg\)	3	.
16c\L	.	.	.	.
16B\JJ	.	.	.	.
8A\L	4	.	.	.
8G\J	1	.	.	.
!!LO:LB:g=original
=64	=64	=64	=64	=64
8F#\L	2	(4.ddd^\	5	.
8E\	.	.	.	.
8F#\	.	.	.	.
8D\J	5	8aa\	2	.
8G\L	3	16bb\LL	3	.
.	.	16ccc\	.	.
8B\	2	16bb\	.	.
.	.	16aa\JJ	.	.
8d\	1	16bb\LL	.	.
.	.	16aa\	.	.
8D\J	5	16bb\	.	.
.	.	16gg\JJ	1	.
=65	=65	=65	=65	=65
(8F#\L	3	8aa\	4	.
8c\	.	4dd^\	1	.
8B\	.	.	.	.
8A\J	.	8ff#\	2	.
8G\L	4	4.gg\	3	.
8B\J	.	.	.	.
4d\)	.	.	.	.
.	.	8bb\)	5	.
=66	=66	=66	=66	=66
(8c\L	.	(8aa\	4	.
8B\	.	4dd^\	.	.
8A\	4	.	.	.
8c\J	1	8ff#\	.	.
8B\L	2	8gg\L	.	.
8G\J	3	16gg\L	.	.
.	.	16aa\JJ	.	.
4D\)	5	8bb\L	5	.
.	.	8gg\J	.	.
=67	=67	=67	=67	=67
(8F#\L	3	8aa\	4	.
8c\	.	4dd^\	.	.
8B\	.	.	.	.
8A\J	.	8ff#\	.	.
*clefG2	*	*	*	*
16G/LL	5	4gg\)	.	<
16A/	.	.	.	.
16B/	.	.	.	.
16c/JJ	.	.	.	.
16d/LL	.	4r	.	.
16e/	3	.	.	.
16f#/	2	.	.	.
16g/JJ)	1	.	.	[
!!LO:LB:g=original
=68	=68	=68	=68	=68
8f#^/L	3	16ddd\LL	3	f
.	.	16ccc#X\	.	.
8a^/	2	16ddd\	.	.
.	.	16ccc#\JJ	.	.
8dd^/J	1	16cccn\LL	1	.
.	.	16bb\	2	.
8r	.	16ccc\	3	.
.	.	16bb\JJ	2	.
8c^>/L	5	16aa\LL	1	.
.	.	16gg\	2	.
8e^>/	3	16aa\	3	.
.	.	16gg\JJ	1	.
8a^>/J	1	16ff#\LL	3	.
.	.	16ee\	1	.
8r	.	16ff#\	3	.
.	.	16ee\JJ	1	.
=69	=69	=69	=69	=69
16dd\LL	1	8ff#^\L	2	.
16cc#X\	.	.	.	.
16dd\	.	8aa^\	3	.
16cc#\JJ	.	.	.	.
16ccn\LL	1	8ddd^\J	5	.
16b\	.	.	.	.
16cc\	.	8r	.	.
16b\JJ	.	.	.	.
16a/LL	1	8cc^\L	1	.
16g/	.	.	.	.
16a/	.	8ff#^\	3	.
16g/JJ	.	.	.	.
16f#/LL	3	8aa^\J	5	.
16e/	.	.	.	.
16f#/	.	8r	.	.
16e/JJ	.	.	.	.
=70	=70	=70	=70	=70
(>4d/	5	(8cc\	.	.
.	.	4ccc^\	5	.
4f#/	3	.	.	.
.	.	8aa\)	4	.
4g/	2	(8b\	1	.
.	.	4bb^\	5	.
4c#X/	5	.	.	.
.	.	8gg\)	4	.
!!LO:LB:g=original
=71	=71	=71	=71	=71
4d/)	4	(8ff#\L	3	>
.	.	16ff#\L	.	.
.	.	16gg\JJ	.	.
(8f#/L	2	8aa\L	.	.
8a/J	1	8ff#\J	.	.
8g/L	2	4b\) 4gg	4	]] p
8f#/	3	.	.	.
8e/	1	4r	.	.
8d/J	2	.	.	.
*clefF4	*	*	*	*
=72	=72	=72	=72	=72
8c\L	3	(8a/	4	.
8B\	1	4d^/	.	.
8A\	.	.	.	.
8D\J	5	8f#/	.	.
8G\L	1	4.g/	.	.
8F#\	.	.	.	.
8E\	3	.	.	.
8D\J	1	8b\)	5	.
=73	=73	=73	=73	=73
8C/L	2	(>8a/	4	.
8BB/	.	4d^/	.	.
8AA/	.	.	.	.
8D/J	.	8f#/	4	.
4GG/)	5	4B/) 4g	5	.
4r	.	4r	.	.
=74	=74	=74	=74	=74
(4d\	.	4g/ 4b	.	f
4B\	.	4g\ 4b 4dd	.	.
4G\)	.	4b\ 4dd 4gg	.	.
4r	.	4r	.	.
=75	=75	=75	=75	=75
4C\ 4c	.	4cc\ 4ee-X 4aa	.	ff
4r	.	4r	.	.
4GG/ 4G	.	4b\ 4dd 4gg	.	.
4r	.	4r	.	.
==	==	==	==	==
*-	*-	*-	*-	*-
!!!system-decoration: {(s1,s2)}
!!!RDF**kern: > = above
!!!RDF**kern: < = below
!!!ENC: Anastazja Marusiak
!!!END: 2023-10-08
!!!ENC: Leszek Kubiak
!!!END: 2023-10-25
